X:1
T:Droop Sacred Head
T:Droop Sacred Head
T:From Olivet to Calvary
T:Maunder
C:Maunder
%%score 1 2 3
L:1/8
M:4/4
K:Eb
V:1 treble nm="Flute" snm="Fl."
V:2 treble transpose=-2 nm="B♭ Clarinet" snm="B♭ Cl."
V:3 treble transpose=-2 nm="B♭ Clarinet" snm="B♭ Cl."
V:1
 g4 g2 b2 | a4 z4 | a4 a2 c'2 | b4 z2 z2 | e'4 b3 =b | c'2 g2 b2 a2 | g4 g3 f | e2 G2 B2 e2 | %8
!p! e4 _d4 | =d6 d2 | =d6 d2 | e4 G4 | _G4 F2 A2 | G4 E2 E2 | B4 =A2 A2 | E4 D4 | B4 B4 | B6 B2 | %18
 A8 | G6 G2 | A4 G2 F2 | G6 =B2 | G4 =A4 | _A6 D2 | B4 c4 | f2 c2 ^c2 d2 | =c2 d2 e2 F2 | F6 B2 | %28
 f6 e2 | d2 b2 f2 ^f2- | f2 g4 =A2 | B2 B2 =A2 B2 |!mf! G4 G2 B2 | A6 =E2 | F3 =E F2 c2 | B6 B2 | %36
 B3 =A _A2 e2 | e4 G2 G2 | G3 _G F2 d2 | c4 B4 | G4 G2 B2 | A6 =E2 | F3 =E F2 c2 | B6 B2 | %44
 =B4 c2 d2 | f4 e2 d2 | =B2 c2 d2 e2 | g4 f2 B2 | f6 e2 | d2 e2 =e2 f2 | g6 =A2 | B6 D2 | E4 _G4 | %53
 B4 B2 =E2- | E4 _E4 | B2 B2 c2 d2 | e4 d2 c2 | d6 B2 | e2 e2 d2 c2 | d8 | _d4 c2 B2 | c6 C2 | %62
 B2 B2 A2 G2 | A8 | F4 G2 A2 | B6 B2 | F2 F2 G2 A2 | B8 | B4 c2 _d2 | e6 e2 | B2 B2 c2 _d2 | e8 | %72
 e4 d2 c2 | d6 B2 | e2 e2 d2 c2 | d6 B2 | c2 d2 e2 f2 | g6 g2 | g4 g4 | g4 f2 e2 | e4 d2 c2 | %81
 c3 G B4- | B2 B2 c2 e2 | g4 f4- | f2 c2 e2 g2 | b8- | b4 e4 | e8 | f4 g4 | a8 | =a4 b4 | _c'8 | %92
 =c'8 | _d'8 | =d'8 | e'8 |] %96
V:2
[K:F] c4 f2 _e2 | e4 z4 | e4 e2 =B2 | f4 z2 z2 | _e4 f4 | f2 _e2 d2 _d2 | c2 =B2 _B4 | %7
 A2 F2 A2 c2 | A4 A2 c2 | B6 ^F2 | G3 ^F G2 d2 | c6 c2 | c3 =B _B2 f2 | f4 A2 A2 | A3 _A G2 e2 | %15
 d4 c4 | A4 A2 c2 | B6 ^F2 | G3 ^F G2 d2 | c6 c2 | ^c4 d2 e2 | g4 f2 e2 | ^c2 d2 e2 f2 | a4 g2 c2 | %24
 g6 f2 | e2 f2 ^f2 g2 | a6 =B2 | c6 E2 | F4 _A4 | C4 G2 ^F2- | F4 =F4 | G2 E2 F2 G2 | %32
!p! F4 _E2 E2 | =E6 E2 | E3 E E2 E2 | F4 A4 | _A4 G2 B2 | A4 F2 F2 | F3 F G2 =B2 | G2 A2 B2 c2 | %40
 F4 ^F2 F2 | G6 E2 | E3 E E2 E2 | F6 F2 | G4 F2 E2 | A6 A2 | A2 A2 =B2 B2 | _B6 E2 | c4 d2 c2 | %49
 G2 D2 ^D2 E2 | =D2 E2 =B2 G2 | G6 c2 | g6 f2 | e2 c'2 g2 ^g2- | g2 a4 B2 | G2 G2 A2 B2 | A8 | %57
 B4 A2 G2 | A6 F2 | B2 B2 A2 G2 | A8 | B2 d2 c2 B2 | _e4 d2 d2 | d2 g2 d2 _d2 | c8 | c4 B2 A2 | %66
 c6 c2 | c2 c2 B2 A2 | f8 | F4 _E2 D2 | A6 F2 | B2 B2 =B2 B2 | A8 | B4 A2 G2 | A6 A2 | %75
 B2 B2 A2 G2 | A2 G2 F2 D2 | D2 =B2 ^c2 A2 | D2 E2 F2 G2 | A6 A2 | _A6 A2 | =A3 F A4- | %82
 A2 A2 c2 d2 | d8- | d2 B2 d2 f2 | a4 g4- | g4 c4 | c8 | e4 _e4 | d8 | _d4 c4 | =B8 | _B8 | A8 | %94
 G8 | A8 |] %96
V:3
[K:F] F4 F2 ^F2 | G4 z4 | G4 G2 ^G2 | A4 z2 z2 | A4 _e4 | B2 ^F2 G2 F2 | C2 D2 E4 | F2 C2 F2 A2 | %8
 F4 ^F4 | G6 c2 | B6 B2 | A4 _E4 | D4 _D4 | C4- C2 C2 | D4 F2 G2 | G2 A2 _B2 E2 | F4 _E4 | =E6 E2 | %18
 C8 | F6 F2 | G4 F2 E2 | D6 E2 | F4 G4 | C6 B,2 | A,4 _A,4 | G,8- | G,6 G,2 | C2 C2 =B,2 _B,2 | %28
 _A,4 D4 | G,4 E2 _E2 | D4 G,4 | C2 C2 D2 E2 |!p! F4 ^F2 F2 | G6 C2 | B,3 B, B,2 B,2 | A,4 _E4 | %36
 D4 _D2 D2 | C6 C2 | D3 D =B,2 G,2 | F4 E4 | C4 _E2 E2 | =E6 C2 | B,3 B, B,2 B,2 | A,6 A,2 | %44
 E4 D2 ^C2 | D6 ^C2 | F2 F2 G2 G2 | C6 B,2 | A,4 _A,4 | G,8- | G,6 G,2 | C2 C2 =B,2 _B,2 | %52
 _A,4 D4 | G,4 E2 _E2 | D4 G,4 | E2 E2 F2 G2 | C8- | C8- | C8- | C8 | F8 | B,8 | G4 ^F4 | %63
 G2 B2 G2 F2 | E4 B,4 | A4 G2 F2 | B,6 B,2 | A,4 G,2 F,2 | _E8 | D4 C2 B,2 | _E6 E2 | %71
 D2 D2 _D2 D2 | C8 | C8 | C6 E2 | C6 C2 | F2 ^C2 D2 B,2 | A,6 A,2 | =B,2 ^C2 D2 E2 | F4 E2 D2 | %80
 D4 E2 F2 | C3 C C4- | C2 C2 C2 C2 | C8- | C2 C2 C2 C2 | C4 E4- | E4 B4 | A8 | A8 | F8- | F8- | %91
 F8- | F8- | F8- | F8- | F8 |] %96

